!!!!SEGMENT: pl-wtm--r-609-2-m--001_moniuszko-stanislaw--libella-albo-zemsta-owadu-vivace.krn
!!!cenid: 18xx:3001
!!!COM: Moniuszko, Stanisław
!!!COM-rismid: pe30008351
!!!CDT: 1819/05/05-1872/06/04
!!!CNT: Polish
!!!GTL: Libella albo Zemsta Owadu
!!!OTL: Vivace
!!!PDT: 1871
!!!AGN: Secular
!!!SMS-siglum: PL-Wtm
!!!SMS-shelfmark: R 609/2/M
!!!SMS-shelfwork: 001 G
!!!SMS-variant:
!!!SMS-altvar:
!!!NIFC-rismid: 1001090850
!!!URL-scan: http://repozytorium.nifc.pl/skany/pl-wtm-nut--r609-b-m
!!!ONB-nifc: UWAGA: obsada: vl, pf. Skany 0004-0006
!!!AIN: 1 piano 1 violn
!!!key:
**kern	**kern	**dynam	**kern	**dynam
*part2	*part2	*part2	*part1	*part1
*staff3	*staff2	*	*staff1	*
*Ipiano	*Ipiano	*	*Ivioln	*
*I"[Piano]	*I"[Piano]	*	*I"[Violin]	*
*clefF4	*clefG2	*	*clefG2	*
*k[b-e-]	*k[b-e-]	*	*k[b-e-]	*
*G:	*G:	*	*G:	*
*M2/4	*M2/4	*	*M2/4	*
*>[A,B,B1,B,B2,C,D]	*>[A,B,B1,B,B2,C,D]	*	*>[A,B,B1,B,B2,C,D]	*
=1	=1	=1	=1	=1
*>A	*>A	*>A	*>A	*>A
*	*	*	*tremolo	*
!	!	!	!LO:TX:t=P:problem=all\right&colon; global	!
!	!	!	!LO:TX:i:a:t=sul ponticello.	!
2r	2d/	.	16d^</LL	.
.	.	.	16d/	.
.	.	.	16d/	.
.	.	.	16d/	.
.	.	.	16d/	.
.	.	.	16d/	.
.	.	.	16d/	.
.	.	.	16d/JJ	.
=2	=2	=2	=2	=2
2r	2d/	.	16d^</LL	.
.	.	.	16d/	.
.	.	.	16d/	.
.	.	.	16d/	.
.	.	.	16d/	.
.	.	.	16d/	.
.	.	.	16d/	.
.	.	.	16d/JJ	.
=3	=3	=3	=3	=3
2r	4d/	.	16d/LL	.
.	.	.	16d/	.
.	.	.	16d/	.
.	.	.	16d/JJ	.
.	4d/	.	16d/LL	.
.	.	.	16d/	.
.	.	.	16d/	.
.	.	.	16d/JJ	.
=4	=4	=4	=4	=4
2r	4d/	.	16d/LL	.
.	.	.	16d/	.
.	.	.	16d/	.
.	.	.	16d/JJ	.
.	4d/	.	16d/LL	.
.	.	.	16d/	.
.	.	.	16d/	.
.	.	.	16d/JJ	.
=5	=5	=5	=5	=5
2r	8d/	.	16d/LL	.
.	.	.	16d/	.
.	8r	.	16d/	.
.	.	.	16d/JJ	.
.	4r	.	16d/LL	.
.	.	.	16d/	.
.	.	.	16e-/	.
.	.	.	16e-/JJ	.
=6	=6	=6	=6	=6
2r	2r	.	16d^</LL	.
.	.	.	16d/	.
.	.	.	16d/	.
.	.	.	16d/JJ	.
.	.	.	16d/LL	.
.	.	.	16d/	.
.	.	.	16c#X/	.
.	.	.	16c#/JJ	.
=7	=7	=7	=7	=7
*	*	*	*rep	*
2r	2r	.	16d^</LL	.
.	.	.	16d/	.
.	.	.	16d/	.
.	.	.	16d/JJ	.
.	.	.	16d/LL	.
.	.	.	16d/	.
.	.	.	16c#X/	.
.	.	.	16c#/JJ	.
*	*	*	*Xrep	*
=8	=8	=8	=8	=8
2r	2r	.	16d/LL	.
.	.	.	16d/	.
.	.	.	16e-/	.
.	.	.	16e-/	.
.	.	.	16d/	.
.	.	.	16d/	.
.	.	.	16c#X/	.
.	.	.	16c#/JJ	.
=9	=9	=9	=9	=9
*	*	*	*rep	*
2r	2r	.	16d/LL	.
.	.	.	16d/	.
.	.	.	16e-/	.
.	.	.	16e-/	.
.	.	.	16d/	.
.	.	.	16d/	.
.	.	.	16c#X/	.
.	.	.	16c#/JJ	.
*	*	*	*Xrep	*
=10	=10	=10	=10	=10
*	*	*	*rep	*
!	!	!LO:DY:b:rj	!	!
8B- 8G\	8d/	pp	16d/LL	.
.	.	.	16d/	.
8r	8r	.	16e-/	.
.	.	.	16e-/	.
8B- 8G\	8g/	.	16d/	.
.	.	.	16d/	.
8ryy	8r	.	16c#X/	.
.	.	.	16c#/JJ	.
*	*	*	*Xrep	*
=11	=11	=11	=11	=11
*	*	*	*rep	*
8c 8G\	8a/	.	16d/LL	.
.	.	.	16d/	.
8r	8r	.	16e-/	.
.	.	.	16e-/	.
8r	8r	.	16d/	.
.	.	.	16d/	.
8G\	8b-/	.	16c#X/	.
.	.	.	16c#/JJ	.
*	*	*	*Xrep	*
!!LO:LB:g=original
=12	=12	=12	=12	=12
*2\right	*2\right	*	*2\right	*
*tremolo	*	*	*	*
8G\L	8g'</L	.	16d/LL	.
.	.	.	16d/	.
8G\	8a'</	.	16c#X/	.
.	.	.	16c#/JJ	.
8G\	8b-'</	.	16d/LL	.
.	.	.	16d/	.
8G\J	8cc'</J	.	16e-/	.
.	.	.	16e-/JJ	.
*Xtremolo	*	*	*	*
=13	=13	=13	=13	=13
*	*	*	*rep	*
8B-L 8G\	8dd/L	.	16d/LL	.
.	.	.	16d/	.
8B-J 8G\	8gg/J	.	16c#X/	.
.	.	.	16c#/JJ	.
8B- 8G\	8dd/	.	16d/LL	.
.	.	.	16d/	.
8ryy	8r	.	16e-/	.
.	.	.	16e-/JJ	.
*	*	*	*Xrep	*
=14	=14	=14	=14	=14
8A 8F#X\	8dd 8d/	.	16d/LL	.
.	.	.	16d/	.
8r	8r	.	16e-/	.
.	.	.	16e-/	.
8F#\	8a 8d/	.	16d/	.
.	.	.	16d/	.
8r	8r	.	16c#X/	.
.	.	.	16c#/JJ	.
=15	=15	=15	=15	=15
8G\	8b- 8d/	.	16d/LL	.
.	.	.	16d/	.
8r	8r	.	16c#X/	.
.	.	.	16c#/	.
8r	8r	.	16d/	.
.	.	.	16d/	.
8ryy	8g/	.	16e-/	.
.	.	.	16e-/JJ	.
=16	=16	=16	=16	=16
*tremolo	*	*	*	*
8D\L	8f#X'</L	.	16d/LL	.
.	.	.	16d/	.
8D\	8g'</	.	16c#X/	.
.	.	.	16c#/	.
8D\	8a'</	.	16B#X/	.
.	.	.	16B#/	.
8D\J	8b-'</J	.	16c#/	.
.	.	.	16c#/JJ	.
*Xtremolo	*	*	*	*
=17	=17	=17	=17	=17
8D\L	8a/L	.	16d/LL	.
.	.	.	16d/	.
8d\J	8f#X/J	.	16cn/	.
.	.	.	16c/	.
8D\	8d/	.	16B-X/	.
.	.	.	16B-/	.
8ryy	8r	.	16A/	.
.	.	.	16A/JJ	.
=18	=18	=18	=18	=18
8G\	8d/	.	16A^</LL	.
.	.	.	16A/	.
8r	8r	.	16B-/	.
.	.	.	16B-/	.
8F'>\L	8g/	.	16Bn/	.
.	.	.	16B/	.
8E-'>\J	8r	.	16c/	.
.	.	.	16c/JJ	.
=19	=19	=19	=19	=19
8E-X'>\L	4.a/	.	16c#X/LL	.
.	.	.	16c#/	.
8D'>\	.	.	16d/	.
.	.	.	16d/	.
8C#X'>\	.	.	16e-X/	.
.	.	.	16e-/	.
8Cn'>\J	8cc/	.	16en/	.
.	.	.	16e/JJ	.
=20	=20	=20	=20	=20
8D\L	8b-/L	.	16f/LL	.
.	.	.	16f/	.
8d\	8a/	.	16f#X/	.
.	.	.	16f#/	.
8B-\	8g/	.	16g/	.
.	.	.	16g/	.
8A\J	8ee-/J	.	16f#/	.
.	.	.	16f#/JJ	.
=21	=21	=21	=21	=21
8B-\	8dd/L	.	16fn/LL	.
.	.	.	16f/	.
8r	8bb-/J	.	16eny/	.
.	.	.	16eny/	.
(<4BB-/	4gg/	.	16e-X/	.
.	.	.	16e-X/	.
.	.	.	16d/	.
.	.	.	16d/JJ	.
!!LO:LB:g=original
=22	=22	=22	=22	=22
!LO:TX:a:t=P:problem=brak zakończenia łuku	!	!	!	!
8AA/)	8gg\L	.	16c#X/LL	.
.	.	.	16c#/	.
8r	16r	.	16cn/	.
.	16a\Jk	.	16c/	.
8GG/	8dd\	.	16Bn/	.
.	.	.	16B/	.
8r	8r	.	16B-X/	.
.	.	.	16B-/JJ	.
=23	=23	=23	=23	=23
8FF/	8dd/L	.	16A/LL	.
.	.	.	16A/	.
8r	16r	.	16A-X/	.
.	16f/Jk	.	16A-/	.
8C/	8e-/L	.	16G/	.
.	.	.	16G/	.
8r	8cc/J	.	16en/	.
.	.	.	16e/JJ	.
=24	=24	=24	=24	=24
8D\	16g/LL	.	16e-X/LL	.
.	16a/JJ	.	16e-/	.
8r	4b-/	.	16d/	.
.	.	.	16d/	.
8D\	.	.	16c#X/	.
.	.	.	16c#/	.
8r	8a/	.	16cn/	.
.	.	.	16c/JJ	.
=25	=25	=25	=25	=25
8G\	8g/L	.	16B-/LL	.
.	.	.	16B-/	.
8r	8a/	.	16c/	.
.	.	.	16c/	.
4r	8b-/	.	16c#X/	.
.	.	.	16c#/	.
.	8cc/J	.	16d/	.
.	.	.	16d/JJ	.
=26!|:	=26!|:	=26!|:	=26!|:	=26!|:
*>B	*>B	*>B	*>B	*>B
!	!	!	!LO:TX:B:b:t=wejście:color=red	!
8F#X'>\L	8dd 8a/	.	16d/LL	.
.	.	.	16d/	.
8d 8A'>\	8r	.	16e-/	.
.	.	.	16e-/	.
8F#'>\	8aa 8dd 8cc\	.	16d/	.
.	.	.	16d/	.
8dJ 8A'>\	8r	.	16c#X/	.
.	.	.	16c#/JJ	.
=27	=27	=27	=27	=27
8G'>\L	8bb- 8b-\	.	16d/LL	.
.	.	.	16d/	.
8gJ 8B-'>\	8r	.	16c#X/	.
.	.	.	16c#/	.
*rep	*	*	*	*
8G'>\L	8r	.	16d/	.
.	.	.	16d/	.
8gJ 8B-'>\	8gg 8b-'>\	.	16e-/	.
.	.	.	16e-/JJ	.
*Xrep	*	*	*	*
=28	=28	=28	=28	=28
8A'>\L	8ffnL 8cc'>\	.	16f/LL	.
.	.	.	16f/	.
8e-'>\	8cc'>\	.	16g-X/	.
.	.	.	16g-/	.
8B-'>\	8dd 8b-'>\	.	16f/	.
.	.	.	16f/	.
8d'>\J	8b-'>\J	.	16g-/	.
.	.	.	16g-/JJ	.
=29	=29	=29	=29	=29
8D'>\L	8aL 8fn'>\	.	16f/LL	.
.	.	.	16f/	.
8d'>\	8dd 8f#X'>\	.	16f#X/	.
.	.	.	16f#/	.
8G'>\	8b- 8g'>\	.	16gn/	.
.	.	.	16g/	.
(>8c#X^>\J	8gg'>\J	.	16b-/	.
.	.	.	16b-/JJ	.
!!LO:PB:g=original
=30	=30	=30	=30	=30
!LO:TX:t=P:problem=mixed beam	!	!	!	!
!LO:TX:a:t=P:problem=brak zakończenia łuku	!	!	!	!
8d'>\L)	8ff'>\L	.	16a/LL	.
.	.	.	16a/	.
!	!	!	!LO:TX:t=cres-cen-do.:dur=10e:ext=ud:problem=text with extention lines	!
8D'</	8gg'>\	.	16b-/	.
.	.	.	16b-/	.
8d'>\	8ff'>\	.	16a/	.
.	.	.	16a/	.
8B-'>\J	8dd'>\J	.	16a-X/	.
.	.	.	16a-/JJ	.
=31	=31	=31	=31	=31
8E-X\L	8ee-'>\L	.	16g/LL	.
.	.	.	16g/	.
8An\	8cc'>\	.	16g-X/	.
.	.	.	16g-/	.
8D\	8dd\	.	16f/	.
.	.	.	16f/	.
8F\J	8a\J	.	16e-X/	.
.	.	.	16e-/JJ	.
=32	=32	=32	=32	=32
!LO:TX:t=P:problem=mixed beam	!	!	!	!
8BB-/L	8b-\L	.	16d/LL	.
.	.	.	16d/	.
8F#X'>\ 8FF#X/	8ee-\	.	16c/	.
.	.	.	16c/	.
8G\'> 8GG/	8dd\	.	16Bn/	.
.	.	.	16B/	.
8C#X'<J 8CC#X/	8gg\J	.	16B-X/	.
.	.	.	16B-/JJ	.
=33	=33	=33	=33	=33
8D'< 8DD/	8ff#X\L	.	16A/LL	.
.	.	.	16A/	.
(>16F#X\LL	8aa\	.	16d/	.
16A\JJ	.	.	16d/	.
!LO:TX:t=P:problem=mixed beam	!	!	!	!
8d'>\L)	8dd\J	.	16f#X/	.
.	.	.	16f#/	.
!	!	!	!LO:TX:B:b:t=C=:color=red	!
8D'</J	8r	.	16a/	.
.	.	.	16a/JJ	.
=34	=34	=34	=34	=34
!	!	!LO:DY:b:t=mezzoforte.	!	!LO:DY:b:t=mezzo forte.
8G 8D 8GG/	8dd 8b- 8g/	mf	16ddLL 16d/	mf
.	.	.	16dd 16d/	.
8r	8r	.	16ee- 16d/	.
.	.	.	16ee- 16d/	.
8G 8D 8GG/	8gg 8dd 8b- 8g\	.	16dd 16d/	.
.	.	.	16dd 16d/	.
8r	8r	.	16cc#X 16d/	.
.	.	.	16cc#JJ 16d/	.
=35	=35	=35	=35	=35
4.F#X 4.D 4.GG/	4.aa 4.dd 4.a\	.	16ccnLL 16d/	.
.	.	.	16cc 16d/	.
.	.	.	16bn 16d/	.
.	.	.	16b 16d/	.
.	.	.	16cc 16d/	.
.	.	.	16cc 16d/	.
8G 8D 8GG/	8bb- 8b-\	.	16cc#X 16d/	.
.	.	.	16cc#JJ 16d/	.
=36	=36	=36	=36	=36
8B-L 8D 8GG/	8ggL 8g\	.	16ddLL 16d/	.
.	.	.	16dd 16d/	.
8A 8D 8GG/	8aa 8a\	.	16cc#X 16d/	.
.	.	.	16cc# 16d/	.
8G 8GG/	8bb- 8b-\	.	16dd 16d/	.
.	.	.	16dd 16d/	.
8GJ 8GG/	8cccJ 8cc\	.	16ee- 16d/	.
.	.	.	16ee-JJ 16d/	.
=37	=37	=37	=37	=37
*	*	*	*rep	*
8GL 8GG/	8dddL 8dd\	.	16ddLL 16d/	.
.	.	.	16dd 16d/	.
8B-J 8G/	8gggJ 8gg\	.	16cc#X 16d/	.
.	.	.	16cc# 16d/	.
4B- 4G\	4ddd\	.	16dd 16d/	.
.	.	.	16dd 16d/	.
.	.	.	16ee- 16d/	.
.	.	.	16ee-JJ 16d/	.
*	*	*	*Xrep	*
=38	=38	=38	=38	=38
8F#X 8D 8FF#X/	8ddd 8gg 8dd\	.	16ddLL 16d/	.
.	.	.	16dd 16d/	.
8r	8r	.	16ee- 16d/	.
.	.	.	16ee- 16d/	.
8F# 8D 8FF#/	8aa 8dd 8a\	.	16dd 16d/	.
.	.	.	16dd 16d/	.
8r	8r	.	16cc#X 16d/	.
.	.	.	16cc#JJ 16d/	.
!!LO:LB:g=original
=39	=39	=39	=39	=39
*	*	*	*^	*
4.G 4.D 4.GG\	4.bb- 4.gg 4.b-\	.	16ddLL 16d/	16d\LL	.
.	.	.	16dd 16d/	16d\	.
.	.	.	16cc#X/	16d\	.
.	.	.	16cc#/	16d\	.
.	.	.	16dd/	16d\	.
.	.	.	16dd/	16d\	.
8B- 8BB-\	8gg 8b- 8g\	.	16ee-/	16d\	.
.	.	.	16ee-/JJ	16d\JJ	.
=40	=40	=40	=40	=40	=40
*^	*	*	*	*	*
*	*2\left	*	*	*	*	*
*	*tremolo	*	*	*	*	*
8d/L	8D\L	8ff#XL 8dd 8f#X'>\	.	16dd/LL	16d\LL	.
.	.	.	.	16dd/	16d\	.
8d/	8D\	8gg 8een 8g'>\	.	16cc#X/	16d\	.
.	.	.	.	16cc#/	16d\	.
8d/	8D\	8aa 8ff# 8a'>\	.	16ccn/	16d\	.
.	.	.	.	16cc/	16d\	.
8G/J	8D\J	8bb-J 8gg 8b-'>\	.	16cc#X/	16d\	.
.	.	.	.	16cc#/JJ	16d\JJ	.
*	*Xtremolo	*	*	*	*	*
*v	*v	*	*	*	*	*
=41	=41	=41	=41	=41	=41
*	*2\right	*	*	*	*
!	!	!	!LO:TX:a:t=P:problem=wspólna główka z 2d\	!	!
8dL 8D\	8aaL 8ff#X 8a\	.	16ddLL 16d/	16d\LL	.
.	.	.	16dd 16d/	16d\	.
8D\J	8ff#XJ 8dd 8a\	.	16cc/	16d\	.
.	.	.	16cc/	16d\	.
4D 4DD/	4dd\	.	16b-/	16d\	.
.	.	.	16b-/	16d\	.
.	.	.	16a/	16d\	.
.	.	.	16a/JJ	16d\JJ	.
*	*	*	*v	*v	*
=42	=42	=42	=42	=42
!LO:TX:t=P:problem=mixed beam	!	!LO:DY:b:t=piu forte:rj	!	!
(>16GG/LL	8dd 8d/	f	16aLL 16d/	.
16G\	.	.	16a 16d/	.
16FF#X/	8r	.	16b- 16d/	.
16FnX\JJ	.	.	16b- 16d/	.
16FFn/LL	8gg 8g\	.	16bn 16d/	.
16FnX\	.	.	16b 16d/	.
16EEn/	8r	.	16cc 16d/	.
16En\JJ	.	.	16ccJJ 16d/	.
=43	=43	=43	=43	=43
*	*	*	*^	*
*tremolo	*	*	*	*	*
16E-XLL 16EE-X/	4.aa 4.a\	.	16cc#X/LL	16d\LL	.
16E- 16EE-/	.	.	16cc#/	16d\	.
16D 16DD/	.	.	16dd/	16d\	.
16D 16DD/	.	.	16dd/	16d\	.
16C#X 16CC#X/	.	.	16ee-X/	16d\	.
16C# 16CC#/	.	.	16ee-/	16d\	.
!	!	!	!LO:TX:i:a:t=3liz.	!	!
16Cn 16CCn/	8ccc 8cc\	.	16een/	16d\	.
!	!	!	!LO:TX:t=P:problem=niezrozumiałem oznaczenie	!	!
!	!	!	!LO:TX:a:t=3cośtam	!	!
16CJJ 16CC/)	.	.	16ee/JJ	16d\JJ	.
*Xtremolo	*	*	*	*	*
=44	=44	=44	=44	=44	=44
16GG/LL	(>8bb-L 8b-^>\	.	16ff/LL	16d\LL	.
16D/	.	.	16ff/	16d\	.
16GG/	8aa 8dd\	.	16ff#X/	16d\	.
16D/JJ	.	.	16ff#/	16d\	.
!LO:TX:t=P:problem=mixed beam	!	!	!	!	!
16BB-/LL	8gg\)	.	16gg/	16d\	.
16B-\	.	.	16gg/	16d\	.
16AA/	8eee-J 8ee-\	.	16ff#/	16d\	.
16A\JJ	.	.	16ff#/JJ	16d\JJ	.
*	*	*	*v	*v	*
=45	=45	=45	=45	=45
*	*8va	*	*	*
*	*	*	*^	*
!LO:TX:t=P:problem=mixed beam	!	!	!	!	!
!	!LO:TX:i:a:t=con:rj	!	!	!	!
16BB-/LL	(>8ddd\L	.	16ffn/LL	16d\LL	.
16G\	.	.	16ff/	16d\	.
16BB-/	8bbb-\J)	.	16een/	16d\	.
16G\JJ	.	.	16ee/	16d\	.
!LO:TX:a:t=P:problem=akcent bezpośrednio nad 8BB-	!	!	!	!	!
(>8B-L 8BB-^>\	4ggg\	.	16ee-X/	16d\	.
.	.	.	16ee-/	16d\	.
8B-\J	.	.	16dd/	16d\	.
.	.	.	16dd/JJ	16d\JJ	.
=46	=46	=46	=46	=46	=46
!LO:TX:a:t=P:problem=akcent bezpośrednio nad 8AA	!	!	!	!	!
8AL 8AA^>\	8gggL 8gg^>\	.	16cc#X/LL	16d\LL	.
.	.	.	16cc#/	16d\	.
8A\J	16r	.	16ccn/	16d\	.
.	16aa\Jk	.	16cc/	16d\	.
!LO:TX:a:t=P:problem=akcent bezpośrednio nad 8GG	!	!	!	!	!
8GL 8GG^>\	4ddd\	.	16bn/	16d\	.
.	.	.	16b/	16d\	.
8G\J	.	.	16b-X/	16d\	.
.	.	.	16b-/JJ	16d\JJ	.
*	*	*	*v	*v	*
*	*X8va	*	*	*
=47	=47	=47	=47	=47
8FL 8FF/)	8dddL 8dd^>\	.	16aLL 16d/	.
.	.	.	16a 16d/	.
8BBn|</	16r	.	16a-X/	.
.	(>16ff\K	.	16a-/	.
8C|</	8een'>\)	.	16g/	.
.	.	.	16g/	.
!LO:TX:B:a:t==D:color=red	!	!	!	!
8CJ 8CC/	8cccJ 8ee-X'>\	.	16ee-X 16g/	.
.	.	.	16ee-JJ 16g/	.
!!LO:LB:g=original
=48	=48	=48	=48	=48
8C#XL 8CC#X'</	16ggLL 16ee-X\	.	16ee-XLL 16g/	.
.	16aa\JJ	.	16ee- 16g/	.
8D 8DD'</	4bb- 4dd 4b-^>\	.	16dd 16d/	.
.	.	.	16ddJJ 16d/	.
8En 8EEn'</	.	.	16cc#XLL 16d/	.
.	.	.	16cc# 16d/	.
8F#XJ 8FF#X'</	8aa\ 8dd\ 8cc\ 8a\	.	16ccn 16d/	.
.	.	.	16ccJJ 16d/	.
=49	=49	=49	=49	=49
*>B1	*>B1	*>B1	*>B1	*>B1
!	!	!	!LO:TX:a:t=Ima	!
8G 8GG/	8gg 8dd 8b- 8g\	.	16b-LL 16d/	.
.	.	.	16b- 16d/	.
(>8G\L	8r	.	16B-/	.
.	.	.	16B-/	.
8qB-/	.	.	.	.
8A\	4r	.	16c/	.
.	.	.	16c/	.
8G\J)	.	.	16c#X/	.
!	!	!	!LO:TX:t=P:problem=u dołu jest tu dziwny czerwony dopisek, \nktóry nie jest zrozumiały	!
.	.	.	16c#/JJ	.
=50:|!	=50:|!	=50:|!	=50:|!	=50:|!
*>B2	*>B2	*>B2	*>B2	*>B2
!	!	!	!LO:TX:a:t=2da	!
8G 8GG/	8gg 8dd 8b-\	.	16b-LL 16d/	.
.	.	.	16b- 16d/	.
!	!LO:TX:i:b:t=cant&colon;	!	!	!
8r	(>8ddL 8d/	.	16dd/	.
.	.	.	16dd/	.
4r	8ee- 8e-/	.	16ee-/	.
.	.	.	16ee-/	.
.	8eenJ 8en/	.	16een/	.
.	.	.	16ee/JJ	.
=51	=51	=51	=51	=51
*>C	*>C	*>C	*>C	*>C
!LO:TX:i:b:t=legier&colon;	!LO:TX:B:b:t=a=:color=red	!	!LO:TX:i:a:t=ſolce.	!
(>16D\LL	8ff 8f\)	.	16ff\LL	.
16F\	.	.	16ff\	.
16B-\	8r	.	16ggn\	.
16d\JJ)	.	.	16gg\	.
8D'>\L	(>[>4bb- [>4b-^>\	.	16ff\	.
.	.	.	16ff\	.
8dJ 8B- 8F'>\	.	.	16een\	.
.	.	.	16ee\JJ	.
=52	=52	=52	=52	=52
(>16C\LL	8.bb-]L 8.b-\]	.	16ee-X\LL	.
16F\	.	.	16ee-\	.
16A\	.	.	16bn\	.
16e-\JJ)	16aaJk 16a\)	.	16b\	.
8F'>\L	4ee-\	.	16cc\	.
.	.	.	16cc\	.
8fJ 8A'>\	.	.	16cc#X\	.
.	.	.	16cc#\JJ	.
=53	=53	=53	=53	=53
(>16BB-\LL	8dd\	.	16dd\LL	.
16D\	.	.	16dd\	.
16G\	8r	.	16ee-\	.
16B-\JJ)	.	.	16ee-\	.
8BB-'>\L	(>[>4gg [>4g^>\	.	16dd\	.
.	.	.	16dd\	.
8B-J 8G 8D'>\	.	.	16cc#X\	.
.	.	.	16cc#\JJ	.
=54	=54	=54	=54	=54
!	!	!	!LO:TX:t=P:problem=mixed beam	!
(>16AA\LL	8.gg]L 8.g\]	.	16ccn\LL	.
16C\	.	.	16cc\	.
16F\	.	.	16bn\	.
16c\JJ)	16ffJk 16f\)	.	16b\	.
!	!LO:TX:B:b:t==B:color=red	!	!	!
8A'>\L	4cc\	.	16cc\	.
.	.	.	16cc\	.
8f'>\J	.	.	16f/	.
.	.	.	16f/JJ	.
=55	=55	=55	=55	=55
8B-L 8G'>\	16b-/LL	.	16f#X/LL	.
.	16a/	.	16f#/	.
8dJ 8B-'>\	16b-/	.	16g/	.
.	16cc/JJ	.	16g/	.
8G-X\L	16dd/LL	.	16a/	.
.	16cc/	.	16a/	.
8e-J 8B-\	16dd/	.	16b-/	.
.	16ee-/JJ	.	16b-/JJ	.
!!LO:PB:g=original
=56	=56	=56	=56	=56
8F'>\L	16ff\LL	.	16dd\LL	.
.	16een\	.	16dd\	.
8fJ 8B-\	16ff\	.	16dd-X\	.
.	16gg\JJ	.	16dd-\	.
8E-X'>\L	(>16aa\LL	.	16cc\	.
.	16bb-\)	.	16cc\	.
8AJ 8G'>\	(>16aa\	.	16cc#X\	.
.	16bb-\JJ)	.	16cc#\JJ	.
=57	=57	=57	=57	=57
!LO:TX:B:b:t=60:color=red	!	!	!	!
8D'>\L	16ddd^>\LL	.	16dd\LL	.
.	16ccc\	.	16dd\	.
8e-XJ 8F#X'>\	16bb-\	.	16ee-\	.
.	16aa\JJ	.	16ee-\	.
8G'>\L	8bb-\L	.	16dd\	.
.	.	.	16dd\	.
8enJ 8d-X 8B-\	8gg\J	.	16een\	.
.	.	.	16ee\JJ	.
=58	=58	=58	=58	=58
8fL 8A\	16ff\LL	.	16ff\LL	.
.	16cc\	.	16ff\	.
8cJ 8A\	16dd\	.	16gg-X\	.
.	16ee-\JJ	.	16gg-\	.
8B-'>\L	8dd\L	.	16ff\	.
.	.	.	16ff\	.
8dJ 8B-'>\	(>16b-\L	.	16ggn\	.
.	16dd\JJ)	.	16gg\JJ	.
=59	=59	=59	=59	=59
!LO:TX:B:a:t=a = B	!	!	!	!
!LO:TX:i:b:t=legier&colon;	!	!	!LO:TX:i:a:t=ſolce.	!
(>16D\LLyy	8ffyy 8f\)yy	.	16ff\LLyy	.
16F\yy	.	.	16ff\yy	.
16B-\yy	8ryy	.	16ggn\yy	.
16d\JJ)yy	.	.	16gg\yy	.
8D'>\Lyy	(>[>4bb-yy [>4b-^>\yy	.	16ff\yy	.
.	.	.	16ff\yy	.
8dJyy 8B-yy 8F'>\yy	.	.	16een\yy	.
.	.	.	16ee\JJyy	.
=60	=60	=60	=60	=60
(>16C\LLyy	8.bb-]Lyy 8.b-\]yy	.	16ee-X\LLyy	.
16F\yy	.	.	16ee-\yy	.
16A\yy	.	.	16bn\yy	.
16e-\JJ)yy	16aaJkyy 16a\)yy	.	16b\yy	.
8F'>\Lyy	4ee-\yy	.	16cc\yy	.
.	.	.	16cc\yy	.
8fJyy 8A'>\yy	.	.	16cc#X\yy	.
.	.	.	16cc#\JJyy	.
=61	=61	=61	=61	=61
(>16BB-\LLyy	8dd\yy	.	16dd\LLyy	.
16D\yy	.	.	16dd\yy	.
16G\yy	8ryy	.	16ee-\yy	.
16B-\JJ)yy	.	.	16ee-\yy	.
8BB-'>\Lyy	(>[>4ggyy [>4g^>\yy	.	16dd\yy	.
.	.	.	16dd\yy	.
8B-Jyy 8Gyy 8D'>\yy	.	.	16cc#X\yy	.
.	.	.	16cc#\JJyy	.
=62	=62	=62	=62	=62
!	!	!	!LO:TX:t=P:problem=mixed beam	!
(>16AA\LLyy	8.gg]Lyy 8.g\]yy	.	16ccn\LLyy	.
16C\yy	.	.	16cc\yy	.
16F\yy	.	.	16bn\yy	.
16c\JJ)yy	16ffJkyy 16f\)yy	.	16b\yy	.
8A'>\Lyy	4cc\yy	.	16cc\yy	.
.	.	.	16cc\yy	.
8f'>\Jyy	.	.	16f/yy	.
.	.	.	16f/JJyy	.
=63	=63	=63	=63	=63
*tremolo	*	*	*	*
8e-L 8B- 8G\	16b-/LL	.	16b-\LL	.
.	16a/	.	16a\	.
8e-J 8B- 8G\	16b-/	.	16b-\	.
.	16cc/JJ	.	16cc\JJ	.
8dL 8B- 8F\	16dd\LL	.	16dd\LL	.
.	16cc\	.	16cc\	.
8dJ 8B- 8F\	16dd\	.	16dd\	.
.	16ee-\JJ	.	16ee-\JJ	.
=64	=64	=64	=64	=64
8cL 8F 8E-\	16ff\LL	.	16ff\LL	.
.	16ff#X\	.	16ff#X\	.
8cJ 8F 8E-\	16gg\	.	16gg\	.
.	16aa\JJ	.	16aa\JJ	.
*Xtremolo	*	*	*	*
8B-L 8F 8D\	16bb-\LL	.	16bb-\LL	.
.	16aa\	.	16aa\	.
8A-XJ 8F 8D\	16bb-\	.	16bb-\	.
!	!LO:TX:a:t=h:color=red	!	!	!
.	16bbn\JJ	.	16bbn\JJ	.
=65	=65	=65	=65	=65
8E-\L	16ccc\LL	.	16ccc\LL	.
!	!LO:ACC:color=red	!	!	!
.	16bb-X\	.	16bb-X\	.
8cJ 8G\	16aa\	.	16aa\	.
.	16gg\JJ	.	16gg\JJ	.
8F\L	16ff\LL	.	16ff\LL	.
.	16ee-\	.	16ee-\	.
8fJ 8A\	16dd\	.	16dd\	.
.	16cc\JJ	.	16cc\JJ	.
=66	=66	=66	=66	=66
8d 8B-\	8b-\	.	16b-\LL	.
.	.	.	16b-\	.
8r	8r	.	16cc\	.
.	.	.	16cc\	.
4r	4r	.	16cc#X\	.
.	.	.	16cc#\	.
.	.	.	16dd\	.
.	.	.	16dd\JJ	.
!!LO:LB:g=original
=67	=67	=67	=67	=67
!	!LO:TX:B:b:t=C = D.	!	!	!
!	!	!LO:DY:b	!	!LO:DY:a:rj
8Gyy 8Dyy 8GG/yy	8ddyy 8b-yy 8g/yy	fff	16ddLLyy 16d/yy	fff
.	.	.	16ddyy 16d/yy	.
8ryy	8ryy	.	16ee-yy 16d/yy	.
.	.	.	16ee-yy 16d/yy	.
8Gyy 8Dyy 8GG/yy	8ggyy 8ddyy 8b-yy 8g\yy	.	16ddyy 16d/yy	.
.	.	.	16ddyy 16d/yy	.
8ryy	8ryy	.	16cc#Xyy 16d/yy	.
.	.	.	16cc#JJyy 16d/yy	.
=68	=68	=68	=68	=68
4.F#Xyy 4.Dyy 4.GG/yy	4.aayy 4.ddyy 4.a\yy	.	16ccnLLyy 16d/yy	.
.	.	.	16ccyy 16d/yy	.
.	.	.	16bnyy 16d/yy	.
.	.	.	16byy 16d/yy	.
.	.	.	16ccyy 16d/yy	.
.	.	.	16ccyy 16d/yy	.
8Gyy 8Dyy 8GG/yy	8bb-yy 8b-\yy	.	16cc#Xyy 16d/yy	.
.	.	.	16cc#JJyy 16d/yy	.
=69	=69	=69	=69	=69
8B-Lyy 8Dyy 8GG/yy	8ggLyy 8g\yy	.	16ddLLyy 16d/yy	.
.	.	.	16ddyy 16d/yy	.
8Ayy 8Dyy 8GG/yy	8aayy 8a\yy	.	16cc#Xyy 16d/yy	.
.	.	.	16cc#yy 16d/yy	.
8Gyy 8GG/yy	8bb-yy 8b-\yy	.	16ddyy 16d/yy	.
.	.	.	16ddyy 16d/yy	.
8GJyy 8GG/yy	8cccJyy 8cc\yy	.	16ee-yy 16d/yy	.
.	.	.	16ee-JJyy 16d/yy	.
=70	=70	=70	=70	=70
*	*	*	*rep	*
8GLyy 8GG/yy	8dddLyy 8dd\yy	.	16ddLLyy 16d/yy	.
.	.	.	16ddyy 16d/yy	.
8B-Jyy 8G/yy	8gggJyy 8gg\yy	.	16cc#Xyy 16d/yy	.
.	.	.	16cc#yy 16d/yy	.
4B-yy 4G\yy	4ddd\yy	.	16ddyy 16d/yy	.
.	.	.	16ddyy 16d/yy	.
.	.	.	16ee-yy 16d/yy	.
.	.	.	16ee-JJyy 16d/yy	.
*	*	*	*Xrep	*
=71	=71	=71	=71	=71
8F#Xyy 8Dyy 8FF#X/yy	8dddyy 8ggyy 8dd\yy	.	16ddLLyy 16d/yy	.
.	.	.	16ddyy 16d/yy	.
8ryy	8ryy	.	16ee-yy 16d/yy	.
.	.	.	16ee-yy 16d/yy	.
8F#yy 8Dyy 8FF#/yy	8aayy 8ddyy 8a\yy	.	16ddyy 16d/yy	.
.	.	.	16ddyy 16d/yy	.
8ryy	8ryy	.	16cc#Xyy 16d/yy	.
.	.	.	16cc#JJyy 16d/yy	.
!!LO:LB:g=original
=72	=72	=72	=72	=72
*	*	*	*^	*
4.Gyy 4.Dyy 4.GG\yy	4.bb-yy 4.ggyy 4.b-\yy	.	16ddLLyy 16d/yy	16d\LLyy	.
.	.	.	16ddyy 16d/yy	16d\yy	.
.	.	.	16cc#X/yy	16d\yy	.
.	.	.	16cc#/yy	16d\yy	.
.	.	.	16dd/yy	16d\yy	.
.	.	.	16dd/yy	16d\yy	.
8B-yy 8BB-\yy	8ggyy 8b-yy 8g\yy	.	16ee-/yy	16d\yy	.
.	.	.	16ee-/JJyy	16d\JJyy	.
=73	=73	=73	=73	=73	=73
*^	*	*	*	*	*
*	*2\left	*	*	*	*	*
*	*tremolo	*	*	*	*	*
8d/Lyy	8D\Lyy	8ff#XLyy 8ddyy 8f#X'>\yy	.	16dd/LLyy	16d\LLyy	.
.	.	.	.	16dd/yy	16d\yy	.
8d/yy	8D\yy	8ggyy 8eenyy 8g'>\yy	.	16cc#X/yy	16d\yy	.
.	.	.	.	16cc#/yy	16d\yy	.
8d/yy	8D\yy	8aayy 8ff#yy 8a'>\yy	.	16ccn/yy	16d\yy	.
.	.	.	.	16cc/yy	16d\yy	.
8G/Jyy	8D\Jyy	8bb-Jyy 8ggyy 8b-'>\yy	.	16cc#X/yy	16d\yy	.
.	.	.	.	16cc#/JJyy	16d\JJyy	.
*	*Xtremolo	*	*	*	*	*
*v	*v	*	*	*	*	*
=74	=74	=74	=74	=74	=74
*	*2\right	*	*	*	*
!	!	!	!LO:TX:a:t=P:problem=wspólna główka z 2d\	!	!
8dLyy 8D\yy	8aaLyy 8ff#Xyy 8a\yy	.	16ddLLyy 16d/yy	16d\LLyy	.
.	.	.	16ddyy 16d/yy	16d\yy	.
8D\Jyy	8ff#XJyy 8ddyy 8a\yy	.	16cc/yy	16d\yy	.
.	.	.	16cc/yy	16d\yy	.
4Dyy 4DD/yy	4dd\yy	.	16b-/yy	16d\yy	.
.	.	.	16b-/yy	16d\yy	.
.	.	.	16a/yy	16d\yy	.
.	.	.	16a/JJyy	16d\JJyy	.
*	*	*	*v	*v	*
=75	=75	=75	=75	=75
!LO:TX:t=P:problem=mixed beam	!	!LO:DY:b:t=piu forte:rj	!	!
(>16GG/LLyy	8ddyy 8d/yy	f	16aLLyy 16d/yy	.
16G\yy	.	.	16ayy 16d/yy	.
16FF#X/yy	8ryy	.	16b-yy 16d/yy	.
16FnX\JJyy	.	.	16b-yy 16d/yy	.
16FFn/LLyy	8ggyy 8g\yy	.	16bnyy 16d/yy	.
16FnX\yy	.	.	16byy 16d/yy	.
16EEn/yy	8ryy	.	16ccyy 16d/yy	.
16En\JJyy	.	.	16ccJJyy 16d/yy	.
=76	=76	=76	=76	=76
*	*	*	*^	*
*tremolo	*	*	*	*	*
16E-XLLyy 16EE-X/yy	4.aayy 4.a\yy	.	16cc#X/LLyy	16d\LLyy	.
16E-yy 16EE-/yy	.	.	16cc#/yy	16d\yy	.
16Dyy 16DD/yy	.	.	16dd/yy	16d\yy	.
16Dyy 16DD/yy	.	.	16dd/yy	16d\yy	.
16C#Xyy 16CC#X/yy	.	.	16ee-X/yy	16d\yy	.
16C#yy 16CC#/yy	.	.	16ee-/yy	16d\yy	.
!	!	!	!LO:TX:i:a:t=3liz.	!	!
16Cnyy 16CCn/yy	8cccyy 8cc\yy	.	16een/yy	16d\yy	.
!	!	!	!LO:TX:t=P:problem=niezrozumiałem oznaczenie	!	!
!	!	!	!LO:TX:a:t=3cośtam	!	!
16CJJyy 16CC/)yy	.	.	16ee/JJyy	16d\JJ	.
*Xtremolo	*	*	*	*	*
=77	=77	=77	=77	=77	=77
16GG/LLyy	(>8bb-Lyy 8b-^>\yy	.	16ff/LLyy	16d\LLyy	.
16D/yy	.	.	16ff/yy	16d\yy	.
16GG/yy	8aayy 8dd\yy	.	16ff#X/yy	16d\yy	.
16D/JJyy	.	.	16ff#/yy	16d\yy	.
!LO:TX:t=P:problem=mixed beam	!	!	!	!	!
16BB-/LLyy	8gg\)yy	.	16gg/yy	16d\yy	.
16B-\yy	.	.	16gg/yy	16d\yy	.
16AA/yy	8eee-Jyy 8ee-\yy	.	16ff#/yy	16d\yy	.
16A\JJyy	.	.	16ff#/JJyy	16d\JJyy	.
*	*	*	*v	*v	*
=78	=78	=78	=78	=78
*	*8va	*	*	*
*	*	*	*^	*
!LO:TX:t=P:problem=mixed beam	!	!	!	!	!
!	!LO:TX:i:a:t=con:rj	!	!	!	!
16BB-/LLyy	(>8ddd\Lyy	.	16ffn/LLyy	16d\LLyy	.
16G\yy	.	.	16ff/yy	16d\yy	.
16BB-/yy	8bbb-\J)yy	.	16een/yy	16d\yy	.
16G\JJyy	.	.	16ee/yy	16d\yy	.
!LO:TX:a:t=P:problem=akcent bezpośrednio nad 8BB-	!	!	!	!	!
(>8B-Lyy 8BB-^>\yy	4ggg\yy	.	16ee-X/yy	16d\yy	.
.	.	.	16ee-/yy	16d\yy	.
8B-\Jyy	.	.	16dd/yy	16d\yy	.
.	.	.	16dd/JJyy	16d\JJyy	.
=79	=79	=79	=79	=79	=79
!LO:TX:a:t=P:problem=akcent bezpośrednio nad 8AA	!	!	!	!	!
8ALyy 8AA^>\yy	8gggLyy 8gg^>\yy	.	16cc#X/LLyy	16d\LLyy	.
.	.	.	16cc#/yy	16d\yy	.
8A\Jyy	16ryy	.	16ccn/yy	16d\yy	.
.	16aa\Jkyy	.	16cc/yy	16d\yy	.
!LO:TX:a:t=P:problem=akcent bezpośrednio nad 8GG	!	!	!	!	!
8GLyy 8GG^>\yy	4ddd\yy	.	16bn/yy	16d\yy	.
.	.	.	16b/yy	16d\yy	.
8G\Jyy	.	.	16b-X/yy	16d\yy	.
.	.	.	16b-/JJyy	16d\JJyy	.
*	*	*	*v	*v	*
*	*X8va	*	*	*
=80	=80	=80	=80	=80
8FLyy 8FF/)yy	8dddLyy 8dd^>\yy	.	16aLLyy 16d/yy	.
.	.	.	16ayy 16d/yy	.
8BBn|</yy	16ryy	.	16a-X/yy	.
.	(>16ff\Kyy	.	16a-/yy	.
8C|</yy	8een'>\)yy	.	16g/yy	.
.	.	.	16g/yy	.
8CJyy 8CC/yy	8cccJyy 8ee-X'>\yy	.	16ee-Xyy 16g/yy	.
.	.	.	16ee-JJyy 16g/yy	.
=81	=81	=81	=81	=81
*tremolo	*	*	*	*
16C#XLL 16CC#X/	16ggLL 16ee-X\	.	16ee-X\LL	.
16C# 16CC#/	16aa\JJ	.	16ee-\	.
16D 16DD/	4bb- 4gg 4b-^>\	.	16dd\	.
16D 16DD/	.	.	16dd\	.
16E- 16EE-/	.	.	16cc#X\	.
16E- 16EE-/	.	.	16cc#\	.
16D 16DD/	16aa\LL	.	16dd\	.
16DJJ 16DD/	16bb-\JJ	.	16dd\JJ	.
=82	=82	=82	=82	=82
.	8qddd/	.	.	.
16CnLL 16CCn/	8cccL 8ee-\	.	16ee-\LL	.
16C 16CC/	.	.	16ee-\	.
16D 16DD/	(>16bb-L 16dd\	.	16dd\	.
16D 16DD/	16ccc\JJ)	.	16dd\	.
16En 16EEn/	8bb-L 8gg\	.	16cc#X\	.
16E 16EE/	.	.	16cc#\	.
16F#X 16FF#X/	8aaJ 8dd\	.	16ccn\	.
16F#JJ 16FF#/	.	.	16cc\JJ	.
*Xtremolo	*	*	*Xtremolo	*
*kcancel	*kcancel	*	*kcancel	*
=83	=83	=83	=83	=83
*>D	*>D	*>D	*>D	*>D
*k[f#]	*k[f#]	*	*k[f#]	*
!LO:TX:B:b:t=70:color=red:rj	!	!	!LO:TX:i:a:t=Coda.	!
!	!LO:TX:a:t=P:problem=znaki przykluczowe&colon; bneenf#	!	!LO:TX:a:t=P:problem=znaki przykluczowe&colon; bneenf#	!
16GG/LL	8gg 8dd 8g\	.	8b\	.
16D/	.	.	.	.
!	!	!LO:DY:b:t=f.:rj	!LO:TX:i:a:t=un poco piu animato.	!
16B/	(<16d#X/LL	f	8r	.
16D/JJ	16dd#y/JJ	.	.	.
*rep	*	*	*	*
!	!	!	!	!LO:DY:b:t=ff.:rj
16GG/LL	16e/LL	.	16bb^>\LL	ff
16D/	16ee/	.	16aa\	.
16B/	16e-X/	.	16gg\	.
16D/JJ	16ee-X/JJ	.	16ff#\JJ	.
*Xrep	*	*	*	*
=84	=84	=84	=84	=84
*rep	*tremolo	*	*	*
!	!LO:TX:B:b:t=E=:color=red	!	!	!
16GG/LL	16ddLL 16d/	.	8gg^>TT>\L	.
16D/	16dd 16d/	.	.	.
!	!LO:TX:b:t=cres-cen-do.:dur=4q1e:ext=ud:problem=text with extention lines	!	!	!
16B/	16dd#X 16d#X/	.	16ff#\L	.
16D/JJ	16dd# 16d#/	.	16gg\JJ	.
!	!	!	!LO:TX:b:t=cres-cen-do.:dur=4q1s:ext=ud:problem=text with extention lines	!
16GG/LL	16ee 16e/	.	16bb^>\LL	.
16D/	16ee 16e/	.	16aa\	.
16B/	16ee-X 16e-X/	.	16gg\	.
16D/JJ	16ee-JJ 16e-/	.	16ff#\JJ	.
*Xrep	*	*	*	*
=85	=85	=85	=85	=85
*rep	*rep	*	*	*
16GG/LL	16ddLL 16d/	.	8gg^>T>\L	.
16D/	16dd 16d/	.	.	.
16B/	16dd#X 16d#X/	.	16ff#\L	.
16D/JJ	16dd# 16d#/	.	16gg\JJ	.
16GG/LL	16ee 16e/	.	16bb^>\LL	.
16D/	16ee 16e/	.	16aa\	.
16B/	16ee-X 16e-X/	.	16gg\	.
16D/JJ	16ee-JJ 16e-/	.	16ff#\JJ	.
*Xrep	*Xrep	*	*	*
=86	=86	=86	=86	=86
*rep	*	*	*	*
16GG/LL	16ddLL 16d/	.	16gg\LL	.
16D/	16dd 16d/	.	16aa\	.
16B/	16dd#X 16d#X/	.	16bb\	.
16D/JJ	16dd# 16d#/	.	16ccc\JJ	.
16GG/LL	16ee 16e/	.	16ddd\LL	.
16D/	16ee 16e/	.	16eee\	.
16B/	16ddn 16dn/)	.	16fff#\	.
16D/JJ	16ddJJ 16d/	.	16ggg\JJ	.
*Xrep	*Xtremolo	*	*	*
!!LO:LB:g=original
=87	=87	=87	=87	=87
*tremolo	*	*	*	*
!	!	!LO:DY:b	!	!
16DLL 16DD/	16aaLL 16cc\	ff	(>8ggg^>\L	.
16D 16DD/	16a\	.	.	.
16D#X 16DD#X/	16aa 16cc\	.	8fff#\J)	.
16D# 16DD#/	16a\JJ	.	.	.
16E 16EE/	16aaLL 16cc\	.	16fff#\LL	.
16E 16EE/	16a\	.	16eee\	.
16F# 16FF#/	16aa#X\	.	16ddd#X\	.
16F#JJ 16FF#/	16a#X\JJ	.	16eee\JJ	.
*Xtremolo	*	*	*	*
=88	=88	=88	=88	=88
8GL 8GG/	16bb\LL	.	8eee^>\L	.
.	16b\	.	.	.
8G#X 8GG#X/	16bb 16ee\	.	8ddd\J	.
.	16b\JJ	.	.	.
8A 8AA/	16aaLL 16cc\	.	16ddd\LL	.
.	16a\	.	16ccc\	.
8A#XJ 8AA#X/	16ff#X\	.	16ddd\	.
.	16g\JJ	.	16ccc\JJ	.
=89	=89	=89	=89	=89
!	!LO:TX:b:t=(x):rj	!	!	!
8BL 8BB/	16ff#LL 16dd/	.	8bb\L	.
.	16f#/	.	.	.
8c 8C/	16ee 16a/	.	16aa\L	.
.	16e/JJ	.	16gg\JJ	.
8c#X 8C#X/	16eeLL 16g/	.	16aa\LL	.
.	16e/	.	16gg\	.
8dJ 8D/	16dd 16b/	.	16ff#\	.
!	!LO:TX:b:B:t==F:color=red	!	!	!
.	16g/JJ	.	16gg\JJ	.
=90	=90	=90	=90	=90
8A'>\L	16cc#XLL 16a/	.	8aa\L	.
.	16e/	.	.	.
8A'>\	16cc# 16a/	.	8ee 8a'>\	.
.	16f#/JJ	.	.	.
8D'>\	16ccnLL 16a/	.	8ff# 8a'>\	.
.	16d/	.	.	.
8D'>\J	16cc 16f#/	.	8ddJ 8d'>\	.
.	16d/JJ	.	.	.
=91	=91	=91	=91	=91
!	!	!LO:DY:b	!	!
16GG\LL	16bLL 16g/	f	8gg 8b 8d\	.
16D\	16dd/	.	.	.
16B\	(<16d#X/	.	8r	.
16D\JJ	16dd#X/JJ	.	.	.
*rep	*	*	*	*
16GG\LL	16e/LL	.	16bb\LL	.
16D\	16ee/	.	16aa\	.
16B\	16e-X/	.	16gg\	.
16D\JJ	16ee-X/JJ)	.	16ff#\JJ	.
*Xrep	*	*	*	*
=92	=92	=92	=92	=92
*rep	*tremolo	*	*	*
!	!LO:TX:B:b:t=E = F	!	!	!
16GG/LLyy	16ddLLyy 16d/yy	.	8gg^>TT>\Lyy	.
16D/yy	16ddyy 16d/yy	.	.	.
!	!LO:TX:b:t=cres-cen-do.:dur=4q1e:ext=ud:problem=text with extention lines	!	!	!
16B/yy	16dd#Xyy 16d#X/yy	.	16ff#\Lyy	.
16D/JJyy	16dd#yy 16d#/yy	.	16gg\JJyy	.
!	!	!	!LO:TX:b:t=cres-cen-do.:dur=4q1s:ext=ud:problem=text with extention lines	!
16GG/LLyy	16eeyyyy 16e/yy	.	16bb^>\LLyy	.
16D/yy	16eeyy 16e/yy	.	16aa\yy	.
16B/yy	16ee-Xyy 16e-X/yy	.	16gg\yyyy	.
16D/JJyy	16ee-JJyy 16e-/yy	.	16ff#\JJyy	.
*Xrep	*	*	*	*
=93	=93	=93	=93	=93
*rep	*rep	*	*	*
16GG/LLyy	16ddLLyy 16d/yy	.	8gg^>T>\Lyy	.
16D/yy	16ddyy 16d/yy	.	.	.
16B/yy	16dd#Xyy 16d#X/yy	.	16ff#\Lyy	.
16D/JJyy	16dd#yy 16d#/yy	.	16gg\JJyy	.
16GG/LLyy	16eeyy 16e/yy	.	16bb^>\LLyy	.
16D/yy	16eeyy 16e/yy	.	16aa\yy	.
16B/yy	16ee-Xyy 16e-X/yy	.	16gg\yy	.
16D/JJyy	16ee-JJyy 16e-/yy	.	16ff#\JJyy	.
*Xrep	*Xrep	*	*	*
=94	=94	=94	=94	=94
*rep	*	*	*	*
16GG/LLyy	16ddLLyy 16d/yy	.	16gg\LLyy	.
16D/yy	16ddyy 16d/yy	.	16aa\yy	.
16B/yy	16dd#Xyy 16d#X/yyyy	.	16bb\yy	.
16D/JJyy	16dd#yy 16d#/yy	.	16ccc\JJyy	.
16GG/LLyy	16eeyy 16e/yy	.	16ddd\LLyy	.
16D/yy	16eeyy 16e/yy	.	16eee\yy	.
16B/yy	16ddnyy 16dn/)yy	.	16fff#\yy	.
16D/JJyy	16ddJJyy 16d/yy	.	16ggg\JJyy	.
*Xrep	*Xtremolo	*	*	*
!!LO:LB:g=original
=95	=95	=95	=95	=95
*tremolo	*	*	*	*
!	!	!LO:DY:b	!	!
16DLLyy 16DD/yy	16aaLLyy 16cc\yy	ff	(>8ggg^>\Lyy	.
16Dyy 16DD/yy	16a\yy	.	.	.
16D#Xyy 16DD#X/yy	16aayy 16cc\yy	.	8fff#\J)yy	.
16D#yy 16DD#/yy	16a\JJyy	.	.	.
16Eyy 16EE/yy	16aaLLyy 16cc\yy	.	16fff#\LLyy	.
16Eyy 16EE/yy	16a\yy	.	16eee\yy	.
16F#yy 16FF#/yy	16aa#X\yy	.	16ddd#X\yy	.
16F#JJyy 16FF#/yy	16a#X\JJyy	.	16eee\JJyy	.
*Xtremolo	*	*	*	*
=96	=96	=96	=96	=96
8GLyy 8GG/yy	16bb\LLyy	.	8eee^>\Lyy	.
.	16b\yy	.	.	.
8G#Xyy 8GG#X/yy	16bbyy 16ee\yy	.	8ddd\Jyy	.
.	16b\JJyy	.	.	.
8Ayy 8AA/yy	16aaLLyy 16cc\yy	.	16ddd\LLyy	.
.	16a\yy	.	16ccc\yy	.
8A#XJyy 8AA#X/yy	16ff#X\yy	.	16ddd\yy	.
.	16g\JJyy	.	16ccc\JJyy	.
=97	=97	=97	=97	=97
!	!LO:TX:b:t=(x):rj	!	!	!
8BLyy 8BB/yy	16ff#LLyy 16dd/yy	.	8bb\Lyy	.
.	16f#/yy	.	.	.
8cyy 8C/yy	16eeyy 16a/yy	.	16aa\Lyy	.
.	16e/JJyy	.	16gg\JJyy	.
8c#Xyy 8C#X/yy	16eeLLyy 16g/yy	.	16aa\LLyy	.
.	16e/yy	.	16gg\yy	.
8dJyy 8D/yy	16ddyy 16b/yy	.	16ff#\yy	.
.	16g/JJyy	.	16gg\JJyy	.
=98	=98	=98	=98	=98
8A\L	16cc#XLL 16a/	.	8aa\L	.
.	16e/	.	.	.
8A 8AA\	16ccn 16a/	.	8eee^>\	.
.	16e/JJ	.	.	.
8d 8D\	16bLL 16g/	.	8ddd^>\	.
.	16dd/	.	.	.
8dJ 8D\	16cc 16a/	.	8fff#^>\J	.
.	16dd/JJ	.	.	.
=99	=99	=99	=99	=99
*	*	*	*tremolo	*
!	!	!LO:DY:b:rj	!LO:TX:i:b:t=tutta la forza	!LO:DY:b:rj
8gL 8G\	16bbLL 16gg^>\	ff	16ggg\LL	ff
.	16dd\	.	16ggg\	.
8d\J	16aa 16ff#^>\	.	16fff#\	.
.	16dd\JJ	.	16fff#\	.
8fnL 8Fn\	16aa-XLL 16ffn^>\	.	16fffn\	.
.	16cc\	.	16fff\	.
8c\J	16gg 16ee^>\	.	16eee\	.
.	16cc\JJ	.	16eee\JJ	.
!!LO:PB:g=original
=100	=100	=100	=100	=100
8e-XL 8E-X\	16ggLL 16ee-X^>\	.	16eee-X'>\LL	.
.	16b-X\	.	16eee-\	.
8B-X\	16gg 16dd^>\	.	16ddd\	.
.	16g\JJ	.	16ddd\	.
8A\	16ggLL 16een 16cc#X^>\	.	16ccc#X\	.
.	16a\	.	16ccc#\	.
8D\J	16ff#X 16ccn^>\	.	16cccn\	.
.	16a\JJ	.	16ccc\JJ	.
=101	=101	=101	=101	=101
!LO:TX:t=P:problem=mixed beam	!	!	!	!
8G\L	16ggLL 16ffn 16dd 16b^>\	.	16bb\LL	.
.	16g\	.	16bb\	.
8cJ\ 8EE/	16ee 16b-X^>\	.	16bb-X\	.
.	16g\JJ	.	16bb-\	.
8Fn\L	16ee-XLL 16cc 16a^>\	.	16aa\	.
.	16f#\	.	16aa\	.
8B-X\J	16dd 16g#X^>\	.	16gg#X\	.
.	16e\JJ	.	16gg#\JJ	.
=102	=102	=102	=102	=102
8A\L	16cc#XLL 16gn^>/	.	16aa\LL	.
.	16e/	.	16aa\	.
8D\	16ccn 16f#^>/	.	16ff#\	.
.	16d/JJ	.	16ff#\	.
8G\	16bnLL 16g^>/	.	16gg\	.
.	16d/	.	16gg\	.
8En\J	16a#X 16g^>/	.	16cc#X\	.
.	16c#X/JJ	.	16cc#\JJ	.
=103	=103	=103	=103	=103
8D\	8b 8g 8d/	.	8dd\	.
8r	8r	.	8r	.
8D^>\L	8aaL 8ff# 8dd^>\	.	8ddd 8dd 8d\	.
8dJ 8A 8F#'>\	8ddJ 8a'>\	.	8r	.
=104	=104	=104	=104	=104
8GL 8GG^>\	8bbL 8gg 8dd^>\	.	8bb 8dd 8d\	.
8dJ 8B 8G'>\	8dd\J 8b	.	8r	.
8D^>\L	8aaL 8ff# 8dd^>\	.	8ddd 8dd 8d\	.
8dJ 8A 8F#'>\	8ddJ 8a\	.	8r	.
=105	=105	=105	=105	=105
8d 8B 8G^>\	8bb 8gg 8dd^>\	.	8bb 8dd 8d\	.
!	!	!LO:DY:b:t=sff:color=black	!	!
8r	8r	sf	8ryy	.
*tremolo	*tremolo	*	*	*
(<32DLLL 32FF#/	(>32aaLLL 32ff# 32dd 32cc\	.	4dddTT>\	.
32D 32FF#/	32aa 32ff# 32dd 32cc\	.	.	.
32D 32FF#/	32aa 32ff# 32dd 32cc\	.	.	.
32D 32FF#/	32aa 32ff# 32dd 32cc\	.	.	.
32D 32FF#/	32aa 32ff# 32dd 32cc\	.	.	.
32D 32FF#/	32aa 32ff# 32dd 32cc\	.	.	.
32D 32FF#/	32aa 32ff# 32dd 32cc\	.	.	.
32DJJJ 32FF#/	32aaJJJ 32ff# 32dd 32cc\	.	.	.
*Xtremolo	*Xtremolo	*	*	*
.	.	.	32qqccc#X/LL	.
.	.	.	32qqddd/JJ	.
=106	=106	=106	=106	=106
8GG/)	8gg 8dd 8b\)	.	8bb\	.
8r	8r	.	8r	.
!	!	!LO:DY:b:t=sff:color=black	!	!LO:DY:b:t=sff:color=black
8D 8DD/	8ddd 8aa 8ff# 8dd\	sf	8ddd\	sf
8r	8r	.	8r	.
=107	=107	=107	=107	=107
!	!	!LO:DY:b:t=sff:color=black	!	!LO:DY:b:t=sff:color=black
8GG 8GGG/	8ddd 8bb 8gg 8dd\	sf	8ggg\	sf
8r	8r	.	8r	.
4r	4r	.	4r	.
==	==	==	==	==
*-	*-	*-	*-	*-
!!!system-decoration: {(s1,s2,s3)}
!!!RDF**kern: | = vertical stroke
!!!RDF**kern: > = above
!!!RDF**kern: < = below
!!!ENC: Andrzej Gręziak
!!!END: 2021-09-02
!!!ENC: Antoni Szymański
!!!END: 2021-09-27
